packages/match-logos/mono/svg/ibm-watson.svg

<svg fill="none" height="25" viewBox="0 0 200 25" width="200" xmlns="http://www.w3.org/2000/svg"><path d="m0 24.5566v-2.4556h3.44475v-19.64534h-3.44475v-2.45566h9.85675v2.45566h-3.44474v19.64534h3.44474v2.4556zm15.2456-24.5566h10.0955c4.0586 0 6.5484 2.48977 6.5484 6.34379 0 3.64939-2.3533 4.94541-3.9905 5.21831v.2046c1.7736.1023 4.809 1.603 4.809 5.6958 0 4.0586-2.6944 7.0941-6.3437 7.0941h-11.1528v-24.5566zm2.9331 10.6412h6.7872c2.3192 0 3.7176-1.22783 3.7176-3.41064v-1.19373c0-2.18281-1.3984-3.41064-3.7176-3.41064h-6.7872zm0 11.3233h7.2988c2.5239 0 4.0928-1.3301 4.0928-3.7858v-1.1937c0-2.4557-1.5348-3.7858-4.0928-3.7858h-7.2988zm39.1201-18.11047h-.1706l-2.0805 4.12687-5.8663 10.7094-5.8321-10.7094-2.0805-4.09277h-.1706v20.66847h-2.899v-24.5566h3.854l7.0259 13.2333h.1364l7.0601-13.2333h3.854v24.5566h-2.8308zm19.6453 20.70257-5.5594-24.5566h5.2865l2.3193 11.8008 1.296 6.8213h.1023l1.5348-6.8213 2.6944-11.8008h5.8322l2.7285 11.8008 1.5007 6.8213h.1023l1.2961-6.8213 2.3533-11.8008h5.0819l-5.6276 24.5566h-6.0709l-3.1037-13.3015-1.1937-5.3888h-.1024l-1.2278 5.3888-3.1037 13.3015zm42.6669 0c-1.876 0-3.206-1.2619-3.513-3.2401h-.204c-.58 2.3875-2.593 3.6494-5.423 3.6494-3.684 0-5.73-2.1828-5.73-5.3888 0-3.8882 3.035-5.764 7.912-5.764h2.934v-1.1596c0-1.8077-.887-2.93317-3.07-2.93317-2.08 0-3.172 1.05727-3.99 2.18277l-3.104-2.72848c1.466-2.18281 3.581-3.51295 7.469-3.51295 5.219 0 7.879 2.38744 7.879 6.75303v8.0833h1.739v4.0586zm-4.058-5.5934v-2.1828h-2.524c-2.013 0-3.07.7503-3.07 2.0804v.5116c0 1.3302.887 1.9782 2.422 1.9782 1.739 0 3.172-.6821 3.172-2.3874zm16.678 5.5934c-3.582 0-5.492-1.8758-5.492-5.3888v-9.0382h-2.592v-4.05866h1.296c1.399 0 1.842-.71623 1.842-1.97817v-3.03547h4.673v4.97953h3.649v4.05867h-3.649v10.3683h3.376v4.0928zm5.491-2.899 3.069-3.1037c1.296 1.4325 2.899 2.3533 4.877 2.3533 2.047 0 2.729-.6821 2.729-1.7735 0-.9209-.58-1.3643-1.876-1.5348l-2.012-.2387c-4.195-.5116-6.242-2.3534-6.242-5.6958 0-3.54708 2.763-6.00273 7.163-6.00273 3.854 0 5.661 1.05729 7.537 2.89904l-3.001 3.06959c-1.16-1.1596-2.695-1.90997-4.263-1.90997-1.774 0-2.456.64797-2.456 1.53477 0 .9891.409 1.5007 1.944 1.7394l2.08.2729c4.025.5116 6.071 2.3533 6.071 5.5593 0 3.5471-3.171 6.1733-7.912 6.1733-3.479-.0341-5.798-1.2278-7.708-3.3424zm18.076-6.3438c0-5.93454 3.24-9.65213 8.663-9.65213s8.663 3.68348 8.663 9.65213c0 5.9686-3.24 9.6862-8.663 9.6862-5.423-.0341-8.663-3.7517-8.663-9.6862zm11.903 1.8758v-3.7517c0-2.3192-1.193-3.64936-3.24-3.64936-2.046 0-3.24 1.33016-3.24 3.64936v3.7517c0 2.3193 1.194 3.6494 3.24 3.6494 2.047.0341 3.24-1.296 3.24-3.6494zm9.107 7.367v-18.48566h5.218v3.13779h.205c.682-1.94406 2.216-3.54706 5.15-3.54706 3.751 0 5.764 2.6603 5.764 7.33283v11.5621h-5.219v-11.1528c0-2.3533-.682-3.51294-2.558-3.51294-1.705 0-3.342.88674-3.342 2.69444v11.9713zm17.326-19.98634c0-1.70532 1.262-2.93315 2.865-2.93315s2.865 1.26193 2.865 2.93315c0 1.70532-1.296 2.93315-2.865 2.93315-1.569.03411-2.865-1.22783-2.865-2.93315zm5.047.23875v-.44339c0-1.26194-.955-2.08049-2.148-2.08049-1.194 0-2.149.85266-2.149 2.08049v.44339c0 1.26193.955 2.08048 2.149 2.08048 1.159 0 2.148-.85265 2.148-2.08048zm-2.558 1.26193h-.818v-3.00136h1.432c.717 0 1.058.40927 1.058.98908 0 .47749-.205.78445-.546.92088l.648 1.0914h-.887l-.511-.95498h-.376zm.478-1.53479c.239 0 .375-.10232.375-.30696v-.17053c0-.20464-.136-.30695-.375-.30695h-.443v.81855h.443z" fill="#1f304c"/></svg>

<svg width="200" height="25" viewBox="0 0 200 25" fill="none" xmlns="http://www.w3.org/2000/svg">
<path d="M0 24.5566V22.101H3.44475V2.45566H0V0H9.85675V2.45566H6.41201V22.101H9.85675V24.5566H0ZM15.2456 0H25.3411C29.3997 0 31.8895 2.48977 31.8895 6.34379C31.8895 9.99318 29.5362 11.2892 27.899 11.5621V11.7667C29.6726 11.869 32.708 13.3697 32.708 17.4625C32.708 21.5211 30.0136 24.5566 26.3643 24.5566H15.2115V0H15.2456ZM18.1787 10.6412H24.9659C27.2851 10.6412 28.6835 9.41337 28.6835 7.23056V6.03683C28.6835 3.85402 27.2851 2.62619 24.9659 2.62619H18.1787V10.6412ZM18.1787 21.9645H25.4775C28.0014 21.9645 29.5703 20.6344 29.5703 18.1787V16.985C29.5703 14.5293 28.0355 13.1992 25.4775 13.1992H18.1787V21.9645ZM57.2988 3.85403H57.1282L55.0477 7.9809L49.1814 18.6903L43.3493 7.9809L41.2688 3.88813H41.0982V24.5566H38.1992V0H42.0532L49.0791 13.2333H49.2155L56.2756 0H60.1296V24.5566H57.2988V3.85403ZM76.9441 24.5566L71.3847 0H76.6712L78.9905 11.8008L80.2865 18.6221H80.3888L81.9236 11.8008L84.618 0H90.4502L93.1787 11.8008L94.6794 18.6221H94.7817L96.0778 11.8008L98.4311 0H103.513L97.8854 24.5566H91.8145L88.7108 11.2551L87.5171 5.8663H87.4147L86.1869 11.2551L83.0832 24.5566H76.9441ZM119.611 24.5566C117.735 24.5566 116.405 23.2947 116.098 21.3165H115.894C115.314 23.704 113.301 24.9659 110.471 24.9659C106.787 24.9659 104.741 22.7831 104.741 19.5771C104.741 15.6889 107.776 13.8131 112.653 13.8131H115.587V12.6535C115.587 10.8458 114.7 9.72033 112.517 9.72033C110.437 9.72033 109.345 10.7776 108.527 11.9031L105.423 9.17462C106.889 6.99181 109.004 5.66167 112.892 5.66167C118.111 5.66167 120.771 8.04911 120.771 12.4147V20.498H122.51V24.5566H119.611ZM115.553 18.9632V16.7804H113.029C111.016 16.7804 109.959 17.5307 109.959 18.8608V19.3724C109.959 20.7026 110.846 21.3506 112.381 21.3506C114.12 21.3506 115.553 20.6685 115.553 18.9632ZM132.231 24.5566C128.649 24.5566 126.739 22.6808 126.739 19.1678V10.1296H124.147V6.07094H125.443C126.842 6.07094 127.285 5.35471 127.285 4.09277V1.0573H131.958V6.03683H135.607V10.0955H131.958V20.4638H135.334V24.5566H132.231ZM137.722 21.6576L140.791 18.5539C142.087 19.9864 143.69 20.9072 145.668 20.9072C147.715 20.9072 148.397 20.2251 148.397 19.1337C148.397 18.2128 147.817 17.7694 146.521 17.5989L144.509 17.3602C140.314 16.8486 138.267 15.0068 138.267 11.6644C138.267 8.11732 141.03 5.66167 145.43 5.66167C149.284 5.66167 151.091 6.71896 152.967 8.56071L149.966 11.6303C148.806 10.4707 147.271 9.72033 145.703 9.72033C143.929 9.72033 143.247 10.3683 143.247 11.2551C143.247 12.2442 143.656 12.7558 145.191 12.9945L147.271 13.2674C151.296 13.779 153.342 15.6207 153.342 18.8267C153.342 22.3738 150.171 25 145.43 25C141.951 24.9659 139.632 23.7722 137.722 21.6576ZM155.798 15.3138C155.798 9.37926 159.038 5.66167 164.461 5.66167C169.884 5.66167 173.124 9.34515 173.124 15.3138C173.124 21.2824 169.884 25 164.461 25C159.038 24.9659 155.798 21.2483 155.798 15.3138ZM167.701 17.1896V13.4379C167.701 11.1187 166.508 9.78854 164.461 9.78854C162.415 9.78854 161.221 11.1187 161.221 13.4379V17.1896C161.221 19.5089 162.415 20.839 164.461 20.839C166.508 20.8731 167.701 19.543 167.701 17.1896ZM176.808 24.5566V6.07094H182.026V9.20873H182.231C182.913 7.26467 184.447 5.66167 187.381 5.66167C191.132 5.66167 193.145 8.32197 193.145 12.9945V24.5566H187.926V13.4038C187.926 11.0505 187.244 9.89086 185.368 9.89086C183.663 9.89086 182.026 10.7776 182.026 12.5853V24.5566H176.808ZM194.134 4.57026C194.134 2.86494 195.396 1.63711 196.999 1.63711C198.602 1.63711 199.864 2.89904 199.864 4.57026C199.864 6.27558 198.568 7.50341 196.999 7.50341C195.43 7.53752 194.134 6.27558 194.134 4.57026ZM199.181 4.80901V4.36562C199.181 3.10368 198.226 2.28513 197.033 2.28513C195.839 2.28513 194.884 3.13779 194.884 4.36562V4.80901C194.884 6.07094 195.839 6.88949 197.033 6.88949C198.192 6.88949 199.181 6.03684 199.181 4.80901ZM196.623 6.07094H195.805V3.06958H197.237C197.954 3.06958 198.295 3.47885 198.295 4.05866C198.295 4.53615 198.09 4.84311 197.749 4.97954L198.397 6.07094H197.51L196.999 5.11596H196.623V6.07094ZM197.101 4.53615C197.34 4.53615 197.476 4.43383 197.476 4.22919V4.05866C197.476 3.85402 197.34 3.75171 197.101 3.75171H196.658V4.57026H197.101V4.53615Z" fill="#1F304C"/>
</svg>
